src/main/resources/icons/components/tree_dark.svg

<!-- Copyright 2000-2022 JetBrains s.r.o. and contributors. Use of this source code is governed by the Apache 2.0 license. -->
<svg width="16" height="16" viewBox="0 0 16 16" fill="none" xmlns="http://www.w3.org/2000/svg">
<path d="M11.9091 3.50552L12.0543 3.66053H12.2667L14 3.66053C14.2818 3.66053 14.5102 3.88895 14.5102 4.17073V6.90732C14.5102 7.31554 14.2421 7.5102 14.0667 7.5102H8.93333C8.75795 7.5102 8.4898 7.31554 8.4898 6.90732V3.09268C8.4898 2.68446 8.75795 2.4898 8.93333 2.4898H10.9226C10.9452 2.4898 10.9668 2.49915 10.9822 2.51563L11.9091 3.50552Z" stroke="#CED0D6" stroke-width="0.979592"/>
<path d="M11.9091 11.5055L12.0543 11.6605H12.2667L14 11.6605C14.2818 11.6605 14.5102 11.889 14.5102 12.1707V14.9073C14.5102 15.3155 14.2421 15.5102 14.0667 15.5102H8.93333C8.75795 15.5102 8.4898 15.3155 8.4898 14.9073V11.0927C8.4898 10.6845 8.75795 10.4898 8.93333 10.4898H10.9226C10.9452 10.4898 10.9668 10.4991 10.9822 10.5156L11.9091 11.5055Z" stroke="#CED0D6" stroke-width="0.979592"/>
<path d="M1.5 1.5V4.5M1.5 4.5H6.5M1.5 4.5V12C1.5 12.2761 1.72386 12.5 2 12.5H6.5" stroke="#CED0D6" stroke-linecap="round"/>
</svg>

<svg xmlns="http://www.w3.org/2000/svg" width="16" height="16" fill="none"><path stroke="#CED0D6" stroke-width=".98" d="m11.91 3.506.144.155H14a.51.51 0 0 1 .51.51v2.736c0 .409-.268.603-.443.603H8.933c-.175 0-.443-.194-.443-.603V3.093c0-.409.268-.603.443-.603h1.99q.035.001.06.026zm0 8 .144.155H14a.51.51 0 0 1 .51.51v2.736c0 .409-.268.603-.443.603H8.933c-.175 0-.443-.194-.443-.603v-3.814c0-.409.268-.603.443-.603h1.99q.035.001.06.026z"/><path stroke="#CED0D6" stroke-linecap="round" d="M1.5 1.5v3m0 0h5m-5 0V12a.5.5 0 0 0 .5.5h4.5"/></svg>
